svgs/regular/house-medical.svg

<svg xmlns="http://www.w3.org/2000/svg" viewBox="0 0 576 512"><!-- Font Awesome Pro 6.0.0-alpha2 by @fontawesome - https://fontawesome.com License - https://fontawesome.com/license (Commercial License) --><path d="M255.999 207.99V255.992H207.999C199.163 255.992 191.999 263.154 191.999 271.992V303.992C191.999 312.83 199.163 319.994 207.999 319.994H255.999V367.994C255.999 376.832 263.163 383.996 271.999 383.996H303.998C312.834 383.996 319.998 376.832 319.998 367.994V319.994H367.998C376.834 319.994 383.998 312.83 383.998 303.992V271.992C383.998 263.154 376.834 255.992 367.998 255.992H319.998V207.99C319.998 199.152 312.834 191.99 303.998 191.99H271.999C263.163 191.99 255.999 199.152 255.999 207.99ZM575.997 247.991C575.997 241.189 573.12 234.433 567.526 229.678L511.995 182.561V55.987C511.995 42.735 501.245 31.985 487.995 31.985S463.996 42.735 463.996 55.987V141.832L303.53 5.672C299.045 1.891 293.522 0 287.998 0S276.952 1.891 272.467 5.672L8.471 229.678C2.877 234.433 0 241.189 0 247.991C0 264.08 13.826 271.992 24.02 271.992C29.499 271.992 35.009 270.125 39.533 266.305L64.002 245.541V448C64.002 483.345 92.656 512 128.001 512H447.996C483.341 512 511.995 483.345 511.995 448V245.541L536.464 266.305C540.979 270.117 546.495 271.992 551.979 271.992C562.14 271.992 575.997 263.962 575.997 247.991ZM463.996 447.998C463.996 456.799 456.796 463.998 447.996 463.998H128.001C119.201 463.998 112.001 456.799 112.001 447.998V207.99C112.001 207.027 111.564 206.207 111.453 205.273L287.998 55.455L463.996 204.809V447.998Z "></path></svg>

<svg xmlns="http://www.w3.org/2000/svg" viewBox="0 0 576 512"><!--! Font Awesome Pro 6.3.0 by @fontawesome - https://fontawesome.com License - https://fontawesome.com/license (Commercial License) Copyright 2023 Fonticons, Inc. --><path d="M303.5 5.7c-9-7.6-22.1-7.6-31.1 0l-264 224c-10.1 8.6-11.3 23.7-2.8 33.8s23.7 11.3 33.8 2.8L64 245.5V432c0 44.2 35.8 80 80 80H432c44.2 0 80-35.8 80-80V245.5l24.5 20.8c10.1 8.6 25.3 7.3 33.8-2.8s7.3-25.3-2.8-33.8l-264-224zM112 432V204.8L288 55.5 464 204.8V432c0 17.7-14.3 32-32 32H144c-17.7 0-32-14.3-32-32zM256 208v48H208c-8.8 0-16 7.2-16 16v32c0 8.8 7.2 16 16 16h48v48c0 8.8 7.2 16 16 16h32c8.8 0 16-7.2 16-16V320h48c8.8 0 16-7.2 16-16V272c0-8.8-7.2-16-16-16H320V208c0-8.8-7.2-16-16-16H272c-8.8 0-16 7.2-16 16z"/></svg>
